packages/ui-icons/svg/Line/add-media.svg

<svg viewBox="0 0 1920 1920" xmlns="http://www.w3.org/2000/svg">
    <path d="M1493.33 320V0H1600v320h320v106.667h-320v320h-106.67v-320h-320V320h320ZM160 426.667c-29.455 0-53.333 23.878-53.333 53.333v1280c0 29.46 23.878 53.33 53.333 53.33h1280c29.46 0 53.33-23.87 53.33-53.33V960H1600v800c0 88.37-71.63 160-160 160H160c-88.365 0-160-71.63-160-160V480c0-88.366 71.634-160 160-160h800v106.667H160Zm373.333 279.136L1223.66 1120l-690.327 414.2V705.803ZM640 894.197V1345.8l376.34-225.8L640 894.197Z" fill-rule="evenodd"/>
</svg>

<svg viewBox="0 0 1920 1920" version="1.1" xmlns="http://www.w3.org/2000/svg">
    <path d="M1493.33,320 L1493.33,0 L1600,0 L1600,320 L1920,320 L1920,426.667 L1600,426.667 L1600,746.667 L1493.33,746.667 L1493.33,426.667 L1173.33,426.667 L1173.33,320 L1493.33,320 Z M160,426.667 C130.545,426.667 106.667,450.545 106.667,480 L106.667,1760 C106.667,1789.46 130.545,1813.33 160,1813.33 L1440,1813.33 C1469.46,1813.33 1493.33,1789.46 1493.33,1760 L1493.33,960 L1600,960 L1600,1760 C1600,1848.37 1528.37,1920 1440,1920 L160,1920 C71.6345,1920 0,1848.37 0,1760 L0,480 C0,391.634 71.6344,320 160,320 L960,320 L960,426.667 L160,426.667 Z M533.333,705.803 L1223.66,1120 L533.333,1534.2 L533.333,705.803 Z M640,894.197 L640,1345.8 L1016.34,1120 L640,894.197 Z" stroke="none" stroke-width="1" fill-rule="evenodd"/>
</svg>
